src/assets/images/footer-heart.svg

<?xml version="1.0" encoding="UTF-8"?>
<svg width="32px" height="28px" viewBox="0 0 32 28" version="1.1" xmlns="http://www.w3.org/2000/svg" xmlns:xlink="http://www.w3.org/1999/xlink">
    <!-- Generator: Sketch 51.2 (57519) - http://www.bohemiancoding.com/sketch -->
    <title>Emoji_u2665</title>
    <desc>Created with Sketch.</desc>
    <defs></defs>
    <g id="Page-1" stroke="none" stroke-width="1" fill="none" fill-rule="evenodd">
        <g id="Emoji_u2665" fill="#DB4437" fill-rule="nonzero">
            <path d="M23.5285714,0.0142857143 C20.1971429,0.0142857143 17.2971429,2.00571429 16,4.88857143 C14.7028571,2.00857143 11.8028571,0.0142857143 8.47142857,0.0142857143 C3.92285714,0.0142857143 0.222857143,3.71714286 0.222857143,8.26571429 C0.222857143,18.5228571 15.02,26.9685714 15.6514286,27.3228571 C15.76,27.3828571 15.8771429,27.4142857 15.9971429,27.4142857 C16.1171429,27.4142857 16.2371429,27.3828571 16.3428571,27.3228571 C16.9714286,26.9685714 31.7742857,18.5228571 31.7742857,8.26571429 C31.7771429,3.71714286 28.0771429,0.0142857143 23.5285714,0.0142857143 Z" id="Shape"></path>
        </g>
    </g>
</svg>

<svg height="28" viewBox="0 0 32 28" width="32" xmlns="http://www.w3.org/2000/svg"><path d="m23.5285714.01428571c-3.3314285 0-6.2314285 1.99142858-7.5285714 4.87428572-1.2971429-2.88-4.1971429-4.87428572-7.52857143-4.87428572-4.54857143 0-8.24857143 3.70285715-8.24857143 8.25142858 0 10.25714281 14.79714286 18.70285711 15.42857146 19.05714281.1085714.06.2257143.0914286.3457143.0914286s.24-.0314286.3457142-.0914286c.6285715-.3542857 15.4314286-8.8 15.4314286-19.05714281.0028572-4.54857143-3.6971428-8.25142858-8.2457143-8.25142858z" fill="#db4437"/></svg>
